X:259
T:Star o' Robbie Burns, The
B:Allan's Violin Gems
Z:Nigel Gatherer
M:4/4
L:1/8
K:G
D2 ^C>D G2 F2|E2 G2 D3 E|D2 G2 A3 B|A6 D2|D3 G G2 F2|E3 A A2 B2|
A2 F2 F2 E2|D6 D2|c3 B A^GAB|G6 G2|A3 A B2 A2|d6 D2|D3 E FGAB|
c6 E2|D2 G2 A3 G|G6||D2|B,3 A, G,2 B,2|D3 E D2 G2|E2 G2 D G3|
A6 D2|B3 A G2 D2|E2 G2 c2 E2|1 D2 G2 A3 G|G6:|2 D2 G2 A d3|g6:|
<end>
<start>
